X:1
T:Caprice No. 08
T:Caprice No. 08
T:Op. 20
T:Luigi Legnani (1790 - 1877)
C:Luigi Legnani
%%score ( 1 2 )
L:1/8
Q:1/4=80
M:3/4
K:Eb
V:1 treble-8 nm="Classical Guitar" snm="Guit."
V:2 treble-8 
V:1
"^Andante"!p!"^III" [Be]2 z2{/e} [Bd]c/d/ | [Be]2 [GB]2 z2 | [Be]2 z2{/e} [Bd]c/d/ | %3
 [Be]2 [GB]2 z2 |!f! [Bb]2 [Ba]2 [Bg]2 | [df]2 z z/ a/ c'2 |!p! [ef]>g[ef]>g[ef]>g | [df]2 z2 z2 |: %8
"^III" b3 =agf | f4 d2 | e2 g2 f2 |"^I" dBFBdf | b3 =agf | f4 d2 | e2 g2 f2 |"^I" dfffff | %16
 z2 !>!=e2 !>!=e2 | z2 !>!=e2 !>!e2 | z2 !>!=e2 !>!=e2 | z2 !>!=e2 !>!e2 :| %20
!f!"^II" [B_d_g]2 z2 [Bd=e]2 |"^I" [=Acf]2 z2 z2 | [B_d_g]2 z2 [Bd=e]2 |"^I" [=Acf]!p!fffff | %24
 [ef][ef][ef][ef][ef][ef] | [df][df][df][df][df][df] | ffffff | [df][df][df][df][df][df] | %28
 z [FBd][FBd][FBd][FBd][FBd] |"_cresc." z [GBe][GBe][GBe][GBe][GBe] | z [Bdf][Bdf][Bdf][Bdf][Bdf] | %31
 z [Beg][Beg][Beg][Beg][Beg] |!f! z [e_gc'][egc'][egc'][egc'][egc'] | z [egb][egb][egb][egb][egb] | %34
!>(!"^I" z [FAd][FAd][FAd][FAd][FAd]!>)! |!p!"^III" [GBe]2 z2{/e} [Bd]c/d/ | [Be]2 [GB]2 z2 | %37
 [Be]2 z2{/e} [Bd]c/d/ | [Be]2 [GB]2 z2 |"^I" [EB_d]2 [EBd]2 [EBd]2 | [EAc]2 z2 z2 | %41
"^III" [Fce]2 [Fce]2 [Fce]2 | [FBd]2 z2 z2 |!f!"^III" [FBd]2 [FBd]2 [FBd]2 | [GBe]2 z z/ f/ g2 | %45
"^I" [Acf]2"^III" [GBe]2 [ABd]2 | [GBe]2 z2 z2 |"^III" [A_cd]2 [Acd]2 [Acd]2 | [GBe]2 z2 z2 | %49
!ff! [Bb]2 (3z [Bb][=B=b] (3[cc'][_d_d'][=d=d'] | [ee']2 [ege']2 [ege']2 |"^VIII" [GBege']2 z4 |] %52
V:2
 G2 z2 A2 | G2 E2 z2 | G2 z2 A2 | G2 E2 z2 | G2 D2 E2 | A2 z2 z2 | =A,2 A,2 A,2 | B,2 z2 z2 |: %8
 D/B/F/B/ F/B/F/B/ F/B/F/B/ | D/B/F/B/ F/B/F/B/ F/B/F/B/ | =A,/c/F/c/ z/ c/F/c/ z/ c/F/c/ | B,6 | %12
 D/B/F/B/ F/B/F/B/ F/B/F/B/ | D/B/F/B/ F/B/F/B/ F/B/F/B/ | =A,/c/F/c/ z/ c/F/c/ z/ c/F/c/ | B,6 | %16
 F/=A/e/f/ z/ f/_e/f/ z/ f/_e/f/ | F/B/d/f/ z/ f/d/f/ z/ f/d/f/ | F/=A/e/f/ z/ f/_e/f/ z/ f/_e/f/ | %19
 F/B/d/f/ z/ f/d/f/ z/ f/d/f/ :| _G,_GG,GG,G | F,FF,C=A,F, | _G,_GG,GG,G | F,2 z2 z2 | z6 | z6 | %26
 [ce][ce][ce][ce][ce][ce] | BBBBBB | A,2 z2 z2 | G,2 z2 z2 | D2 z2 z2 | E2 z2 z2 | =A,2 z2 z2 | %33
 B,2 z2 z2 | B,2 z2 z2 | E2 z2 A2 | G2 E2 z2 | G2 z2 A2 | G2 E2 z2 | G,2 G,2 G,2 | A,2 z2 z2 | %41
 =A,2 A,2 A,2 | B,2 z2 z2 | A,2 A,2 A,2 | G,2 z2 z2 | A,2 B,2 B,2 | E2 z2 z2 | E2 E2 E2 | %48
 E2 z2 z2 | B,2 (3z B,=B, (3C_D=D | E2 B2 G2 | E2 z4 |] %52

